X: 36361
T: Sean McGlynn's
R: mazurka
M: 3/4
K: Dmajor
|:d'f ad fa|g2 g2 ag|(3fdf ad' af|e4 (3abc'|
d'f ad fA|(3Bdg b2 ag|(3fad' Ag ec|1 d4 (3abc':|2 d2 cB AG||

